public/images/logo/logo-open-terms-archive-black-alternative.svg

<svg fill="#010613" viewBox="0 0 206 94" xmlns="http://www.w3.org/2000/svg"><path d="m92.1293 12.5455c0-6.18612-3.8409-9.71311-8.8544-9.71311-5.0412 0-8.8544 3.52699-8.8544 9.71311 0 6.1583 3.8132 9.713 8.8544 9.713 5.0135 0 8.8544-3.527 8.8544-9.713zm-4.0533 0c0 4.0071-1.902 6.1768-4.8011 6.1768-2.9084 0-4.8012-2.1697-4.8012-6.1768 0-4.00715 1.8928-6.17689 4.8012-6.17689 2.8991 0 4.8011 2.16974 4.8011 6.17689zm9.2247 9.4545h3.9983v-6.1307h3.36c4.349 0 6.879-2.5944 6.879-6.37072 0-3.75781-2.484-6.40767-6.777-6.40767h-7.4603zm3.9983-9.3345v-6.30612h2.696c2.308 0 3.425 1.25568 3.425 3.1392 0 1.87432-1.117 3.16692-3.407 3.16692zm15.046 9.3345h12.778v-3.2962h-8.78v-4.5149h8.088v-3.2961h-8.088v-4.50573h8.743v-3.29616h-12.741zm33.946-18.90909h-3.98v11.89209h-.166l-8.162-11.89209h-3.508v18.90909h3.998v-11.9013h.138l8.227 11.9013h3.453zm-76.2583 37.29619h5.789v15.6129h3.9517v-15.6129h5.7891v-3.2962h-15.5298zm20.2973 15.6129h12.778v-3.2962h-8.7801v-4.5149h8.0881v-3.2961h-8.0881v-4.5057h8.7441v-3.2962h-12.742zm18.13 0h3.998v-6.7031h2.917l3.583 6.7031h4.413l-4.016-7.3494c2.151-.9233 3.342-2.7976 3.342-5.3828 0-3.7579-2.484-6.1769-6.777-6.1769h-7.46zm3.998-9.9162v-5.7244h2.696c2.308 0 3.425 1.0248 3.425 2.9084 0 1.8742-1.117 2.816-3.407 2.816zm15.274-8.9929v18.9091h3.878v-12.3537h.157l4.894 12.2614h2.64l4.894-12.2152h.157v12.3075h3.878v-18.9091h-4.931l-5.207 12.7046h-.222l-5.207-12.7046zm36.259 5.4382h3.832c-.055-3.37-2.825-5.6967-7.036-5.6967-4.145 0-7.183 2.2898-7.164 5.7244-.01 2.7884 1.957 4.3857 5.152 5.152l2.059.5171c2.059.4985 3.203 1.0894 3.213 2.3636-.01 1.3849-1.321 2.3267-3.352 2.3267-2.077 0-3.573-.9602-3.702-2.853h-3.869c.102 4.0902 3.028 6.2046 7.617 6.2046 4.617 0 7.331-2.2067 7.34-5.6691-.009-3.1484-2.382-4.8196-5.669-5.5582l-1.698-.4063c-1.644-.3785-3.02-.9879-2.992-2.3451 0-1.2188 1.08-2.1144 3.038-2.1144 1.911 0 3.084.8679 3.231 2.3544zm-89.9789 47.4709 1.4034-4.3118h6.8231l1.4034 4.3118h4.2841l-6.5184-18.9091h-5.152l-6.5277 18.9091zm2.419-7.4325 2.3267-7.1556h.1477l2.3267 7.1556zm15.981 7.4325h3.9979v-6.7031h2.918l3.582 6.7031h4.413l-4.016-7.3494c2.151-.9233 3.342-2.7976 3.342-5.3828 0-3.7579-2.483-6.1769-6.777-6.1769h-7.4599zm3.9979-9.9162v-5.7244h2.696c2.308 0 3.425 1.0248 3.425 2.9084 0 1.8742-1.117 2.816-3.407 2.816zm31.959-2.3729c-.527-4.3671-3.832-6.8785-8.209-6.8785-4.995 0-8.808 3.527-8.808 9.7131 0 6.1676 3.749 9.713 8.808 9.713 4.848 0 7.775-3.2223 8.209-6.7031l-4.045-.0185c-.378 2.022-1.966 3.1854-4.099 3.1854-2.871 0-4.82-2.1328-4.82-6.1768 0-3.9333 1.921-6.1769 4.848-6.1769 2.188 0 3.767 1.2649 4.071 3.3423zm5.076 12.2891h3.998v-7.8111h8.116v7.8111h3.989v-18.9091h-3.989v7.8019h-8.116v-7.8019h-3.998zm25.607-18.9091h-3.998v18.9091h3.998zm8.915 0h-4.441l6.528 18.9091h5.152l6.518-18.9091h-4.432l-4.579 14.3665h-.176zm18.243 18.9091h12.779v-3.2962h-8.781v-4.5149h8.088v-3.2961h-8.088v-4.5057h8.744v-3.2962h-12.742z"/><path d="m5 31-4.330127-7.5h8.660257z"/><path d="m4.75899 25.1462c-.96149-.0339-1.71951-.842-1.62137-1.799.5269-5.138 2.57454-10.0174 5.90017-14.0035 3.69861-4.43316 8.76761-7.50916 14.40761-8.743017 5.6401-1.233856 11.5304-.5553717 16.7422 1.928477 5.2119 2.48385 9.4487 6.63175 12.0426 11.78974 2.5939 5.1579 3.3972 11.0325 2.2832 16.6975-1.1139 5.665-4.0817 10.7981-8.4353 14.5899-4.3537 3.7918-9.8457 6.0267-15.6099 6.3523-5.183.2928-10.321-.9731-14.7597-3.6139-.8268-.4919-1.0235-1.5823-.4773-2.3743.5461-.7921 1.628-.9849 2.4598-.5016 3.7976 2.2064 8.1704 3.2605 12.5807 3.0114 4.9918-.282 9.7479-2.2174 13.5182-5.5011 3.7703-3.2838 6.3403-7.729 7.305-12.6349s.269-9.9933-1.9773-14.4601c-2.2463-4.4667-5.9154-8.05884-10.4288-10.20985-4.5135-2.15101-9.6145-2.73858-14.4988-1.67006s-9.274 3.73234-12.477 7.57141c-2.82988 3.3919-4.5912 7.5307-5.08454 11.895-.10806.956-.90799 1.7094-1.86947 1.6756z"/><path d="m23.002 17.6315c0-.9302.754-1.6842 1.6842-1.6842h12.6315c.9302 0 1.6843.754 1.6843 1.6842 0 .9301-.7541 1.6842-1.6843 1.6842h-12.6315c-.9302 0-1.6842-.7541-1.6842-1.6842z"/><path d="m23.002 23.5262c0-.9302.754-1.6842 1.6842-1.6842h9.9255c.9302 0 1.6842.754 1.6842 1.6842s-.754 1.6842-1.6842 1.6842h-9.9255c-.9302 0-1.6842-.754-1.6842-1.6842z"/><path d="m23.002 29.421c0-.9302.754-1.6843 1.6842-1.6843h11.6315c.9302 0 1.6843.7541 1.6843 1.6843 0 .9301-.7541 1.6842-1.6843 1.6842h-11.6315c-.9302 0-1.6842-.7541-1.6842-1.6842z"/><path d="m23.002 35.3157c0-.9302.754-1.6842 1.6842-1.6842h3.6514c.9302 0 1.6843.754 1.6843 1.6842s-.7541 1.6842-1.6843 1.6842h-3.6514c-.9302 0-1.6842-.754-1.6842-1.6842z"/></svg>

<svg viewBox="0 0 206 94" fill="#010613" xmlns="http://www.w3.org/2000/svg">
	<path d="M92.1293 12.5455C92.1293 6.35938 88.2884 2.83239 83.2749 2.83239C78.2337 2.83239 74.4205 6.35938 74.4205 12.5455C74.4205 18.7038 78.2337 22.2585 83.2749 22.2585C88.2884 22.2585 92.1293 18.7315 92.1293 12.5455ZM88.076 12.5455C88.076 16.5526 86.174 18.7223 83.2749 18.7223C80.3665 18.7223 78.4737 16.5526 78.4737 12.5455C78.4737 8.53835 80.3665 6.36861 83.2749 6.36861C86.174 6.36861 88.076 8.53835 88.076 12.5455ZM97.3007 22H101.299V15.8693H104.659C109.008 15.8693 111.538 13.2749 111.538 9.49858C111.538 5.74077 109.054 3.09091 104.761 3.09091H97.3007V22ZM101.299 12.6655V6.35938H103.995C106.303 6.35938 107.42 7.61506 107.42 9.49858C107.42 11.3729 106.303 12.6655 104.013 12.6655H101.299ZM116.345 22H129.123V18.7038H120.343V14.1889H128.431V10.8928H120.343V6.38707H129.086V3.09091H116.345V22ZM150.291 3.09091H146.311V14.983H146.145L137.983 3.09091H134.475V22H138.473V10.0987H138.611L146.838 22H150.291V3.09091ZM74.0327 40.3871H79.8217V56H83.7734V40.3871H89.5625V37.0909H74.0327V40.3871ZM94.33 56H107.108V52.7038H98.3279V48.1889H106.416V44.8928H98.3279V40.3871H107.072V37.0909H94.33V56ZM112.46 56H116.458V49.2969H119.375L122.958 56H127.371L123.355 48.6506C125.506 47.7273 126.697 45.853 126.697 43.2678C126.697 39.5099 124.213 37.0909 119.92 37.0909H112.46V56ZM116.458 46.0838V40.3594H119.154C121.462 40.3594 122.579 41.3842 122.579 43.2678C122.579 45.142 121.462 46.0838 119.172 46.0838H116.458ZM131.732 37.0909V56H135.61V43.6463H135.767L140.661 55.9077H143.301L148.195 43.6925H148.352V56H152.23V37.0909H147.299L142.092 49.7955H141.87L136.663 37.0909H131.732ZM167.991 42.5291H171.823C171.768 39.1591 168.998 36.8324 164.787 36.8324C160.642 36.8324 157.604 39.1222 157.623 42.5568C157.613 45.3452 159.58 46.9425 162.775 47.7088L164.834 48.2259C166.893 48.7244 168.037 49.3153 168.047 50.5895C168.037 51.9744 166.726 52.9162 164.695 52.9162C162.618 52.9162 161.122 51.956 160.993 50.0632H157.124C157.226 54.1534 160.152 56.2678 164.741 56.2678C169.358 56.2678 172.072 54.0611 172.081 50.5987C172.072 47.4503 169.699 45.7791 166.412 45.0405L164.714 44.6342C163.07 44.2557 161.694 43.6463 161.722 42.2891C161.722 41.0703 162.802 40.1747 164.76 40.1747C166.671 40.1747 167.844 41.0426 167.991 42.5291ZM78.0121 90L79.4155 85.6882H86.2386L87.642 90H91.9261L85.4077 71.0909H80.2557L73.728 90H78.0121ZM80.4311 82.5675L82.7578 75.4119H82.9055L85.2322 82.5675H80.4311ZM96.4121 90H100.41V83.2969H103.328L106.91 90H111.323L107.307 82.6506C109.458 81.7273 110.649 79.853 110.649 77.2678C110.649 73.5099 108.166 71.0909 103.872 71.0909H96.4121V90ZM100.41 80.0838V74.3594H103.106C105.414 74.3594 106.531 75.3842 106.531 77.2678C106.531 79.142 105.414 80.0838 103.124 80.0838H100.41ZM132.369 77.7109C131.842 73.3438 128.537 70.8324 124.16 70.8324C119.165 70.8324 115.352 74.3594 115.352 80.5455C115.352 86.7131 119.101 90.2585 124.16 90.2585C129.008 90.2585 131.935 87.0362 132.369 83.5554L128.324 83.5369C127.946 85.5589 126.358 86.7223 124.225 86.7223C121.354 86.7223 119.405 84.5895 119.405 80.5455C119.405 76.6122 121.326 74.3686 124.253 74.3686C126.441 74.3686 128.02 75.6335 128.324 77.7109H132.369ZM137.445 90H141.443V82.1889H149.559V90H153.548V71.0909H149.559V78.8928H141.443V71.0909H137.445V90ZM163.052 71.0909H159.054V90H163.052V71.0909ZM171.967 71.0909H167.526L174.054 90H179.206L185.724 71.0909H181.292L176.713 85.4574H176.537L171.967 71.0909ZM190.21 90H202.989V86.7038H194.208V82.1889H202.296V78.8928H194.208V74.3871H202.952V71.0909H190.21V90Z" />
	<path d="M5 31L0.669873 23.5L9.33013 23.5L5 31Z" />
	<path d="M4.75899 25.1462C3.7975 25.1123 3.03948 24.3042 3.13762 23.3472C3.66452 18.2092 5.71216 13.3298 9.03779 9.3437C12.7364 4.91054 17.8054 1.83454 23.4454 0.600683C29.0855 -0.633173 34.9758 0.0453113 40.1876 2.52916C45.3995 5.01301 49.6363 9.16091 52.2302 14.3189C54.8241 19.4768 55.6274 25.3514 54.5134 31.0164C53.3995 36.6814 50.4317 41.8145 46.0781 45.6063C41.7244 49.3981 36.2324 51.633 30.4682 51.9586C25.2852 52.2514 20.1472 50.9855 15.7085 48.3447C14.8817 47.8528 14.685 46.7624 15.2312 45.9704V45.9704C15.7773 45.1783 16.8592 44.9855 17.691 45.4688C21.4886 47.6752 25.8614 48.7293 30.2717 48.4802C35.2635 48.1982 40.0196 46.2628 43.7899 42.9791C47.5602 39.6953 50.1302 35.2501 51.0949 30.3442C52.0596 25.4383 51.3639 20.3509 49.1176 15.8841C46.8713 11.4174 43.2022 7.82526 38.6888 5.67425C34.1753 3.52324 29.0743 2.93567 24.19 4.00419C19.3057 5.07271 14.916 7.73653 11.713 11.5756C8.88312 14.9675 7.1218 19.1063 6.62846 23.4706C6.5204 24.4266 5.72047 25.18 4.75899 25.1462V25.1462Z" />
	<path d="M23.002 17.6315C23.002 16.7013 23.756 15.9473 24.6862 15.9473H37.3177C38.2479 15.9473 39.002 16.7013 39.002 17.6315C39.002 18.5616 38.2479 19.3157 37.3177 19.3157H24.6862C23.756 19.3157 23.002 18.5616 23.002 17.6315Z" />
	<path d="M23.002 23.5262C23.002 22.596 23.756 21.842 24.6862 21.842H34.6117C35.5419 21.842 36.2959 22.596 36.2959 23.5262C36.2959 24.4564 35.5419 25.2104 34.6117 25.2104H24.6862C23.756 25.2104 23.002 24.4564 23.002 23.5262Z" />
	<path d="M23.002 29.421C23.002 28.4908 23.756 27.7367 24.6862 27.7367H36.3177C37.2479 27.7367 38.002 28.4908 38.002 29.421C38.002 30.3511 37.2479 31.1052 36.3177 31.1052H24.6862C23.756 31.1052 23.002 30.3511 23.002 29.421Z" />
	<path d="M23.002 35.3157C23.002 34.3855 23.756 33.6315 24.6862 33.6315H28.3376C29.2678 33.6315 30.0219 34.3855 30.0219 35.3157C30.0219 36.2459 29.2678 36.9999 28.3376 36.9999H24.6862C23.756 36.9999 23.002 36.2459 23.002 35.3157Z" />
</svg>
